packages/core/src/svgs/trcl.svg

<svg width="24" height="24" viewBox="0 0 24 24" fill="none" xmlns="http://www.w3.org/2000/svg">
<g clip-path="url(#clip0_31_19941)">
<path d="M0 0H24V24H0V0Z" fill="#F0F3FA"/>
<path d="M5.3572 11.3574L4.28577 12.2145C4.28577 9.2145 6.40291 5.14307 11.1172 5.14307C13.5643 5.14307 15.3515 6.08164 16.6886 7.37164L17.0958 7.29021L16.8729 7.56021C18.1727 8.93211 18.8848 10.7577 18.8572 12.6474C18.8572 15.9045 17.8586 18.1416 17.3572 18.8574C15.0001 18.0002 14.5715 15.8574 14.5715 15.0002C14.5715 14.5116 14.7043 14.1559 14.8543 13.7702C15.0258 13.3159 15.2015 12.8574 15.2015 12.0002C15.2015 11.5716 15.1072 10.5002 14.4601 9.39878L10.2858 12.5831V12.6474C10.2855 13.0638 10.1505 13.469 9.90089 13.8024C9.65126 14.1357 9.30043 14.3793 8.90086 14.4967C8.50129 14.6141 8.07445 14.599 7.68418 14.4537C7.2939 14.3083 6.96116 14.0406 6.73569 13.6904C6.51023 13.3403 6.40417 12.9265 6.43337 12.5111C6.46257 12.0957 6.62546 11.7009 6.89768 11.3857C7.1699 11.0705 7.53683 10.8519 7.9436 10.7626C8.35037 10.6733 8.77512 10.7181 9.15434 10.8902L13.9243 8.66164C13.2215 7.89021 12.1158 7.28592 10.4743 7.28592C7.04577 7.28592 5.64434 10.0031 5.3572 11.3574Z" fill="url(#paint0_linear_31_19941)"/>
</g>
<defs>
<linearGradient id="paint0_linear_31_19941" x1="4.88148" y1="9.42878" x2="18.3815" y2="9.85735" gradientUnits="userSpaceOnUse">
<stop stop-color="#101BAB"/>
<stop offset="1" stop-color="#111B38"/>
</linearGradient>
<clipPath id="clip0_31_19941">
<rect width="24" height="24" fill="white"/>
</clipPath>
</defs>
</svg>

<svg xmlns="http://www.w3.org/2000/svg" width="24" height="24" fill="none" viewBox="0 0 24 24"><g clip-path="url(#a)"><path fill="#F0F3FA" d="M0 0h24v24H0z"/><path fill="url(#b)" d="m5.357 11.357-1.071.857c0-3 2.117-7.07 6.831-7.07 2.447 0 4.234.938 5.572 2.228l.407-.082-.223.27a7.24 7.24 0 0 1 1.984 5.087c0 3.258-.998 5.495-1.5 6.21C15 18 14.572 15.857 14.572 15c0-.488.132-.844.282-1.23.172-.454.348-.913.348-1.77 0-.428-.095-1.5-.742-2.601l-4.174 3.184v.064a1.93 1.93 0 1 1-1.132-1.757l4.77-2.228c-.702-.772-1.808-1.376-3.45-1.376-3.428 0-4.83 2.717-5.117 4.071"/></g><defs><linearGradient id="b" x1="4.881" x2="18.381" y1="9.429" y2="9.857" gradientUnits="userSpaceOnUse"><stop stop-color="#101BAB"/><stop offset="1" stop-color="#111B38"/></linearGradient><clipPath id="a"><path fill="#fff" d="M0 0h24v24H0z"/></clipPath></defs></svg>
